X: 061073
T: Fergus Keane's
C: F.Keane
Z: B.Black
Q: 250
L: 1/8
M: 2/4
R: polka
K: D
DF A>B|AF ED|DF A>B|AF E2|
DF A>B|AF ED|f>e dB|AF ED :|
f>e dB|AF AB|f>e dB|AF E2|
f>e dB|AF AB/c/|dB AF|ED D2 :|
